X:1
T:The Milkman's Rag.
T:The Milkman's Rag.
T:Shep.Camp.
T:Copyright 1913 by F. B. Haviland Pub.Co.Inc.
T:Copyright 1913 by F. B. Haviland Pub.Co.Inc.
T:Copyright 1913 by F. B. Haviland Pub.Co.Inc.
T:Copyright 1913 by F. B. Haviland Pub.Co.Inc.
C:Shep.Camp.
Z:Copyright 1913 by F. B. Haviland Pub.Co.Inc.
%%score { ( 1 2 ) | 3 }
L:1/8
Q:1/4=180
M:4/4
K:G
V:1 treble nm="Piano" snm="Pno."
V:2 treble 
V:3 treble 
V:1
"^Moderato."!mf!{/^c'} d'>e'd'>a d'4 |{/^c'} d'>e'd'>^g d'4 | %2
!<(!{/^c'} d'>e'd'>a!<)!"_cresc." d'>e'd'>^g |!<(! [^fc'd']4!<)! !>![dfc'd'] z z2 || %4
!mf!!<(!{/[^a^c']} [bd']>e'!<)!d'>b g4 |!<(!{/[^a^c']} [bd']>e'!<)!d'>b g z z2 | %6
 a>ba>g!<(! e4!<)! |!>(! a>ba>g!>)! e4 |!<(!{de^e} f z!<)! [cfb] z [cfb] z [cfb] z | %9
 [cfb]af[cfb]- [cfb]2 z (3B/c/^c/ |!<(! d z [Bda]!<)! z [Bda] z [Bda] z | [Bda]ge[Bd]- [Bd]2 z2 | %12
!mf!{/[^a^c']} [bd']>e'd'>b g4 |!<(!{/[^a^c']} [bd']>e'!<)!d'>b g z z2 | a>ba>g!<(! e4!<)! | %15
!>(! a>ba>g!>)! e4 |!<(!{de^e} .f z!<)! [fc'e'] z!<(! [fc'e'] z [fc'e'] z!<)! | %17
 [fc'e']d'c'!>![fc'e']- [fc'e']d' [fb]2 | [Bg]^cd!>!e- ed B2 | %19
 G2 !>![GBg]2!<(! !>![GBf]2 !>![GBe]2!<)! ||!f! !>![GBe] z ([GB]>[F^A] [GB]) z ([GB]>[FA] | %21
 [GB]) z ([GBe]2 [GB] [=FBe]3) | [^Fce] z ([Ac]>[GB] [Ac]) z ([Ac]>[GB] | %23
 [Ac]) z !>![Geg]2 !>![Fdf]2 !>![Ece]2 | [Ece] z ([Ac]>[^GB] [Ac]) z ([Ac]>[GB] | %25
 [Ac]) z [Fce]2 ([Fc] [F^Ae]3) | [GBe] z!<(! ([GB]>[F^A] [GB]) z ([GB]>!<)![FA] | %27
 [GB]) z !>![GBg]2 !>![GBf]2 !>![GBe]2 |!f! !>![GBe] z ([GB]>[F^A] [GB]) z ([GB]>[FA] | %29
 [GB]) z ([GBe]2 [GB] [GBe]3) | .[Ace] z ([Ac]>[^GB] [Ac]) z [Ac]>[GB] | %31
!<(! [Ac] z !>![Aca]2!<)!"_cresc." !>![G_Bg]2 !>![GBe]2 | [G=Be] z (d>^c d) z (d>c | %33
 d) z (d>!<(!^c d>^de>f!<)! | [Bg]) z (3Bc^c (e>d A>B) | G!<(! z z2 !>![GBdg]!<)! z z2 || %36
!mf!!<(!{/[^a^c']} [bd']>e'!<)!d'>b g4 |!<(!{/[^a^c']} [bd']>e'!<)!d'>b g z z2 | %38
 a>ba>g!<(! e4!<)! |!>(! a>ba>g!>)! e4 |!<(!{de^e} f z!<)! [cfb] z [cfb] z [cfb] z | %41
 [cfb]af[cfb]- [cfb]2 z (3B/c/^c/ |!<(! d z [Bda]!<)! z [Bda] z [Bda] z | [Bda]ge[Bd]- [Bd]2 z2 | %44
!mf!{/[^a^c']} [bd']>e'd'>b g4 |!<(!{/[^a^c']} [bd']>e'!<)!d'>b g z z2 | a>ba>g!<(! e4!<)! | %47
!>(! a>ba>g!>)! e4 |!<(!{de^e} .f z!<)! [fc'e'] z!<(! [fc'e'] z [fc'e'] z!<)! | %49
 [fc'e']d'c'!>![fc'e']- [fc'e']d' [fb]2 | [Bg]^cd!>!e- ed B2 | %51
!<(! G z z2!<)! [GBdg] z z (3G/A/B/ ||[K:C][M:4/4] [Ec] z [Gd]2 [Gce]2 [Gceg]2 | %53
 [cec'] [cea]2 [ceg]- [ceg]2 [Gce]2 |!<(! [^Fce]^GA[ce]!<)!!>(! GA[ce]G!>)! | %55
 e z ^d[^Fce]- [Fce]d [Fce]2 |!<(! ([=FBe]^FGe!<)!!>(! ^GAe^A!>)! | [FB]) z d[FBe]- [FBe]d [FB]2 | %58
 [G,G]4- [G,G]2 ^G2 | [C=FA] [CFB]2 [B,FA]- [B,FA]2 [B,FG]2 |{GAB} [Ec] z [Gd]2 [Gce]2 [Gceg]2 | %61
 [cec'] [cea]2 [ceg]- [ceg]2 [Gce]2 |!<(! ([^Fce]^GA[ce]!<)!!>(! GA[ce]G)!>)! | %63
 [ce] z ^d[^Fce]- [Fce]d [Fce]2 |!<(! ([=FBe]^FGe!<)!!>(! ^GAe^A)!>)! | %65
!<(! [Be]^de!<)![Bg]- [Bg]e [F=d]2 | [Ec]^FG!>!A- AF G2 | [Ec]!<(! z z2!<)! !>![cegc'] z z2 || %68
 [B,G]DG[C_E_A]- [CEA]E [CEA]2 | [^C=A]=EA[CE_B]- [CEB]G [CEB]2 | %70
 [DF=B]G[DFB][^D^Fc]- [DFc]A [EG^A^c]2 | [=FGBd]4 [GBfg] z z (3G/A/B/ || %72
!ff! [Ec] z [Gd]2 [Gce]2 [Gceg]2 | !>![cec'] !>![cea]2 !>![ceg]- [ceg]2 [ce]2 | %74
!<(! ([^Fce]^GA[ce]!<)!!>(! GA[ce]G)!>)! | [ce] z ^d[^Fce]- [Fce]d [Fce]2 | %76
!<(! ([=FBe]^FGe!<)!!>(! ^GAe^A)!>)! | .[FB] z d[FBe]- [FBe]d [FB]2 | [G,G]4- [G,G]2 ^G2 | %79
 [C=FA] !>![CFB]2 [B,FA]- [B,FA]2 [B,FG]2 |{GAB} [Ec] z [Gd]2 [Gce]2 [Gceg]2 | %81
 [cec'] [cea]2 [ceg]- [ceg]2 [Gce]2 |!<(! ([^Fce]^GA[ce]!<)!!>(! GA[ce]G)!>)! | %83
 [ce] z ^d[^Fce]- [Fce]d [Fce]2 |!<(! ([=FBe]^FGe!<)!!>(! ^GAe^A)!>)! | %85
!<(! [Be]^de!<)!!>![Bg]-!>(! [Bg]e [F=d]2!>)! | [Ec]^FG!>!A- AF G2 | %87
 [Ec]!<(! z z2!<)! !>![cegc'] z z2 |] %88
V:2
 f2 f2 f4 | =f2 f2 f4 | ^f4 =f4 | x8 || x8 | x8 | ^c4 c4 | ^c2 c2 c4 | x8 | x8 | x8 | x8 | x8 | %13
 x8 | ^c4 c4 | ^c2 c2 c4 | x8 | x8 | x8 | x8 || x8 | x8 | x8 | x8 | x8 | x8 | x8 | x8 | x8 | x8 | %30
 x8 | x8 | x2 (G2 =F) z (F2 | F) x7 | x8 | x8 || x8 | x8 | ^c4 c4 | ^c2 c2 c4 | x8 | x8 | x8 | x8 | %44
 x8 | x8 | ^c4 c4 | ^c2 c2 c4 | x8 | x8 | x8 | x8 ||[K:C][M:4/4] x8 | x8 | x8 | [Ac] x7 | x8 | x8 | %58
 z2 [CE]2 [CE]2 [C^F]2 | x8 | x8 | x8 | x8 | A x7 | x8 | x8 | x8 | x8 || x8 | x8 | x8 | x8 || x8 | %73
 x6 G2 | x8 | A x7 | x8 | x8 | z2 [CE]2 [CE]2 [C^F]2 | x8 | x8 | x8 | x8 | A x7 | x8 | x8 | x8 | %87
 x8 |] %88
V:3
 [DAc]2 [DAc]2 [DAc]2 [DAc]2 | [D^GB]2 [DGB]2 [DGB]2 [DGB]2 | [DAc]2 [DAc]2 [D^GB]2 [DGB]2 | %3
 [DAc]4[K:bass] !arpeggio!!^![D,,A,,F,] z z2 ||[K:treble] !>!G2 !>!F2 !>!E2 !>!_E2 | %5
 !>!D2 !>!B,2 !>!A,2 !>!G,2 |[K:bass] E,2 [G,A,^C]2 A,,2 [G,A,C]2 | E,2 [G,A,^C]2 A,,2 [G,A,C]2 | %8
 A,, z [D,F,C] z D,, z [D,F,C] z | A,,2 [D,F,C]2 D,,2 [D,F,C]2 | %10
 G,, z [D,G,B,] z D,, z [D,G,B,] z | G,,2 [D,G,B,]2 D,,2 [D,G,B,]2 | %12
[K:treble] !>!G2 !>!F2 !>!E2 !>!_E2 | !>!D2 !>!B,2 !>!A,2 !>!G,2 | %14
[K:bass] E,2 [G,A,^C]2 A,,2 [G,A,C]2 | E,2 [G,A,^C]2 A,,2 [G,A,C]2 | %16
 A,, z [D,F,C] z D,, z [D,F,C] z | A,,2 [D,F,C]2 D,,2 [D,F,C]2 | [G,,G,]^C,D,E,- E,D, B,,2 | %19
 B,,2 !>!G,2 !>!F,2 !>!E,2 || [G,,D,]2 [D,G,B,]2 [D,,D,]2 [D,G,B,]2 | %21
 [G,,G,]2 [D,G,B,]2 !>![G,,G,]2 !>![^G,,^G,]2 | !>![A,,A,]2 [D,F,C]2 [D,,D,]2 [D,F,C]2 | %23
 [A,,A,]2 [D,F,C]2 [D,,D,]2 [D,F,C]2 | A,,2 [D,F,C]2 D,,2 [D,F,C]2 | %25
 A,,2 [D,F,C]2 D,,2 [D,F,^A,]2 | G,,2 [D,G,B,]2 D,,2 [D,G,B,]2 | B,, z !>!G,2 !>!F,2 !>!E,2 | %28
 [G,,D,]2 [D,G,B,]2 [D,,D,]2 [D,G,B,]2 | [G,,G,]2 [D,G,B,]2 [E,,E,]2 [E,^G,D]2 | %30
 !>![A,,A,]2 [E,A,C]2 [E,,E,]2 [E,A,C]2 | [A,,A,]2 [E,A,C]2 [^C,,^C,]2 [C,G,_B,]2 | %32
 [D,,D,] z [D,G,B,] z [^G,,^G,] z [D,G,B,] z | [A,,A,] z [D,F,C]2 [D,,D,]2 [D,F,C]2 | %34
 [G,,G,] z (3B,C^C (E>D A,>B,) | G, z z2 !arpeggio!!>![G,,D,B,] z z2 || %36
[K:treble] !>!G2 !>!F2 !>!E2 !>!_E2 | !>!D2 !>!B,2 !>!A,2 !>!G,2 | %38
[K:bass] E,2 [G,A,^C]2 A,,2 [G,A,C]2 | E,2 [G,A,^C]2 A,,2 [G,A,C]2 | %40
 A,, z [D,F,C] z D,, z [D,F,C] z | A,,2 [D,F,C]2 D,,2 [D,F,C]2 | %42
 G,, z [D,G,B,] z D,, z [D,G,B,] z | G,,2 [D,G,B,]2 D,,2 [D,G,B,]2 | %44
[K:treble] !>!G2 !>!F2 !>!E2 !>!_E2 | !>!D2 !>!B,2 !>!A,2 !>!G,2 | %46
[K:bass] E,2 [G,A,^C]2 A,,2 [G,A,C]2 | E,2 [G,A,^C]2 A,,2 [G,A,C]2 | %48
 A,, z [D,F,C] z D,, z [D,F,C] z | A,,2 [D,F,C]2 D,,2 [D,F,C]2 | [G,,G,]^C,D,E,- E,D, B,,2 | %51
 G,, z z2 !arpeggio![G,,D,B,] z z2 ||[K:C][M:4/4] [C,,C,]2 [G,CE]2 G,,2 [G,CE]2 | %53
 C,2 [G,CE]2 G,,2 [G,CE]2 | A,,2 [D,^F,C]2 D,,2 [D,F,C]2 | A,,2 [D,^F,C]2 D,,2 [D,F,C]2 | %56
 G,,2 [=F,G,B,]2 D,,2 [F,G,B,]2 | G,,2 [=F,G,B,]2 D,,2 [F,G,B,]2 | [E,,E,]4- [E,,E,]2 [_E,,_E,]2 | %59
 [D,,D,]3 [G,,G,]- [G,,G,]2 [F,G,]2 | [C,,C,]2 [G,CE]2 G,,2 [G,CE]2 | C,2 [G,CE]2 G,,2 [G,CE]2 | %62
 A,,2 [D,^F,C]2 D,,2 [D,F,C]2 | A,,2 [D,^F,C]2 D,,2 [D,F,C]2 | G,,2 [=F,G,B,]2 D,,2 [F,G,B,]2 | %65
 [G,,F,]2 [F,G,B,]2 G,,2 [F,G,B,]2 | [C,C]^F,G,!>!A,- A,F, G,2 | %67
 [C,C] z z2 !arpeggio!!^![C,,G,,E,] z z2 || [G,,G,]3 [G,,G,]- [G,,G,]2 [G,,G,]2 | %69
 [G,,G,]3 [G,,G,]- [G,,G,]2 [G,,G,]2 | [G,,,G,,]3 [G,,,G,,]- [G,,,G,,]2 [G,,,G,,]2 | %71
 [G,,,G,,]4 [G,,D,B,] z z2 || [C,,C,]2 [G,CE]2 G,,2 [G,CE]2 | C,2 [G,CE]2 G,,2 [G,CE]2 | %74
 A,,2 [D,^F,C]2 D,,2 [D,F,C]2 | A,,2 [D,^F,C]2 D,,2 [D,F,C]2 | G,,2 [=F,G,B,]2 D,,2 [F,G,B,]2 | %77
 G,,2 [=F,G,B,]2 D,,2 [F,G,B,]2 | [E,,E,]4- [E,,E,]2 [_E,,_E,]2 | %79
 [D,,D,]3 [G,,G,]- [G,,G,]2 [F,G,]2 | [C,,C,]2 [G,CE]2 G,,2 [G,CE]2 | C,2 [G,CE]2 G,,2 [G,CE]2 | %82
 A,,2 [D,^F,C]2 D,,2 [D,F,C]2 | A,,2 [D,^F,C]2 D,,2 [D,F,C]2 | G,,2 [=F,G,B,]2 D,,2 [F,G,B,]2 | %85
 [G,,F,]2 [F,G,B,]2 G,,2 [F,G,B,]2 | [C,C]^F,G,!>!A,- A,F, G,2 | %87
 [C,C] z z2 !arpeggio!!>![C,,G,,E,] z z2 |] %88

